dist/img/sprites/header_logo.svg

<svg width="267" height="59" viewBox="0 0 267 59" fill="none" xmlns="http://www.w3.org/2000/svg">
<g clip-path="url(#clip0_105_467)">
<path d="M36.4063 25.0064L41.254 22.1096L41.3512 22.0517C41.4485 21.9949 41.5445 21.931 41.6417 21.8815L41.6595 21.8682L42.5382 21.3444L41.0536 20.4717L40.5306 20.1724C37.6064 18.4343 34.6631 16.7276 31.7282 15.0101C27.5398 17.4434 23.3574 19.8887 19.1583 22.2979C19.0457 26.2339 19.2164 30.1699 19.1062 34.1071C19.2129 39.9718 19.073 45.8402 19.1619 51.7025C21.3652 52.9723 23.5495 54.2758 25.7409 55.5649C25.78 45.8378 25.7314 36.107 25.7646 26.3775C27.7616 25.2695 29.666 23.9901 31.6938 22.9485C33.1974 23.5399 34.5161 24.532 35.9462 25.2816L36.4063 25.0064Z" fill="#A78B73"/>
<path d="M44.3751 25.4131C42.1517 26.7541 39.9021 28.048 37.6763 29.3805C37.6763 30.7082 37.6822 32.0214 37.6763 33.3406C35.7434 34.4861 33.8117 35.6339 31.9013 36.8204C31.9072 39.4154 31.9013 42.0104 31.9072 44.6055C36.0766 42.1915 40.2081 39.6979 44.3798 37.2959C44.3996 33.3346 44.398 29.3737 44.3751 25.4131Z" fill="#A78B73"/>
<path d="M62.3403 18.0191L61.8316 17.7174C58.369 15.581 54.8352 13.5702 51.3358 11.4869C51.3263 10.0562 51.3216 8.62634 51.3216 7.19727C51.3216 6.77 51.3216 6.34272 51.3275 5.91424C51.756 5.4226 52.1817 4.93014 52.6046 4.43689C49.5049 4.43689 46.4051 4.36447 43.3089 4.47672C43.6967 4.89917 44.1034 5.30471 44.5137 5.70905C44.5137 5.93355 44.5137 6.15805 44.5137 6.38255V7.37349C40.1747 5.06573 35.9994 2.41036 31.6996 0C21.7188 5.90217 11.7242 11.7822 1.71576 17.6401C1.71022 17.6426 1.70504 17.6459 1.70035 17.6498L1.03865 18.0372L0.00341797 18.6407H2.00036C3.504 18.683 5.00882 18.6238 6.51246 18.6407C6.5006 27.1428 6.52669 35.6399 6.5006 44.1384C8.69439 45.4757 10.9238 46.7454 13.1413 48.043C13.1555 38.2784 13.1555 28.5151 13.1413 18.753C19.3325 15.1091 25.5439 11.499 31.7221 7.83094C37.8734 11.4366 44.0224 15.0491 50.1689 18.6685C50.161 25.9346 50.161 33.1994 50.1689 40.4631C44.1085 44.0535 38.0497 47.6406 31.9925 51.2246C31.9925 53.816 31.983 56.4074 31.9984 59C40.3253 54.1149 48.653 49.2339 56.9816 44.3568C56.9863 35.7623 56.9863 27.1665 56.9816 18.5695H63.2582L62.3403 18.0191Z" fill="#23272B"/>
<path d="M90.5171 19.721C90.5164 21.5682 89.7952 23.3395 88.512 24.6457C87.2287 25.9518 85.4884 26.6859 83.6736 26.6865H75.5566L77.7848 21.5037H83.6736C83.9074 21.5099 84.14 21.4684 84.3577 21.3816C84.5755 21.2948 84.774 21.1646 84.9415 20.9985C85.1089 20.8324 85.2421 20.6338 85.333 20.4145C85.4238 20.1952 85.4707 19.9596 85.4707 19.7216C85.4707 19.4836 85.4238 19.248 85.333 19.0287C85.2421 18.8094 85.1089 18.6108 84.9415 18.4447C84.774 18.2786 84.5755 18.1484 84.3577 18.0616C84.14 17.9748 83.9074 17.9333 83.6736 17.9395H74.9198V35.4408H69.8207V12.7555H83.6736C85.4884 12.7561 87.2287 13.4902 88.512 14.7963C89.7952 16.1025 90.5164 17.8738 90.5171 19.721Z" fill="#23272B"/>
<path d="M110.889 35.4348H91.7907V12.7555H110.889V17.9455H96.8826V21.5097H107.706V26.6926H96.8826V30.2568H110.889V35.4348Z" fill="#23272B"/>
<path d="M117.254 35.4348H112.155V12.7555H117.254V35.4348ZM132.85 35.4348H127.758V26.6865H117.891L120.119 21.5037H127.759V12.7555H132.851L132.85 35.4348Z" fill="#23272B"/>
<path d="M156.406 24.0951C156.406 27.2268 155.318 29.8999 153.143 32.1143C150.969 34.3288 148.343 35.4356 145.266 35.4348C142.189 35.4348 139.563 34.328 137.387 32.1143C135.212 29.9007 134.124 27.2277 134.125 24.0951C134.125 20.9642 135.212 18.2915 137.387 16.0771C139.562 13.8627 142.188 12.7555 145.266 12.7555C148.342 12.7555 150.968 13.8627 153.143 16.0771C155.319 18.2915 156.406 20.9642 156.406 24.0951ZM151.314 24.0951C151.314 23.0822 151.069 22.0849 150.6 21.1915C150.131 20.2981 149.453 19.5363 148.625 18.9737C147.798 18.411 146.847 18.0649 145.857 17.9659C144.866 17.867 143.867 18.0183 142.948 18.4065C142.029 18.7947 141.218 19.4078 140.587 20.1913C139.957 20.9749 139.526 21.9047 139.333 22.8983C139.14 23.892 139.191 24.9187 139.481 25.8876C139.771 26.8564 140.292 27.7374 140.997 28.4523C141.842 29.3145 142.92 29.9017 144.093 30.1396C145.267 30.3775 146.483 30.2553 147.588 29.7885C148.693 29.3218 149.637 28.5315 150.301 27.5179C150.964 26.5042 151.316 25.313 151.314 24.0951Z" fill="#23272B"/>
<path d="M178.37 28.4741C178.368 30.3213 177.647 32.0924 176.363 33.3985C175.08 34.7045 173.34 35.4386 171.525 35.4396H157.679V12.7555H171.525C173.34 12.7564 175.08 13.4906 176.363 14.7966C177.647 16.1027 178.368 17.8738 178.37 19.721C178.37 21.1042 177.754 22.5622 176.523 24.0951C177.753 25.6296 178.369 27.0893 178.37 28.4741ZM173.27 28.4741C173.272 28.2396 173.228 28.0071 173.14 27.7901C173.053 27.5732 172.924 27.3761 172.761 27.2103C172.598 27.0445 172.404 26.9132 172.191 26.8241C171.978 26.735 171.749 26.6899 171.519 26.6913H163.403L165.636 21.5037H171.525C171.759 21.5099 171.991 21.4684 172.209 21.3816C172.427 21.2948 172.625 21.1646 172.793 20.9985C172.96 20.8324 173.093 20.6338 173.184 20.4145C173.275 20.1952 173.322 19.9596 173.322 19.7216C173.322 19.4836 173.275 19.248 173.184 19.0287C173.093 18.8094 172.96 18.6108 172.793 18.4447C172.625 18.2786 172.427 18.1484 172.209 18.0616C171.991 17.9748 171.759 17.9333 171.525 17.9395H162.772V30.2508H171.525C171.755 30.2524 171.983 30.2075 172.196 30.1189C172.408 30.0302 172.602 29.8995 172.765 29.7343C172.928 29.5691 173.057 29.3726 173.145 29.1563C173.232 28.94 173.277 28.7081 173.276 28.4741H173.27Z" fill="#23272B"/>
<path d="M191.403 12.7555H187.278L186.782 13.9299C185.37 17.2611 183.922 20.5767 182.473 23.8911C181.023 27.2055 179.567 30.5187 178.085 33.8162C177.86 34.3256 177.631 34.8329 177.4 35.3382V35.4348H183.115L189.337 21.1235L193.308 30.2508H185.995L188.223 35.4408H201.267L191.403 12.7555Z" fill="#23272B"/>
<path d="M202.516 35.4348V12.7555H207.615V30.2568H216.527V12.7555H221.607V30.2568H223.072V38.5512H217.979V35.4348H202.516Z" fill="#23272B"/>
<path d="M224.348 12.7555H229.44V25.6183L239.944 12.7555H245.037V35.4348H239.944V22.5719L229.44 35.4348H224.348V12.7555Z" fill="#23272B"/>
<path d="M254.3 26.6865H253.151C251.336 26.6859 249.596 25.9518 248.312 24.6457C247.029 23.3395 246.308 21.5682 246.307 19.721C246.308 17.8738 247.029 16.1025 248.312 14.7963C249.596 13.4902 251.336 12.7561 253.151 12.7555H266.996V35.4348H261.903V17.9334H253.151C252.917 17.9272 252.684 17.9688 252.467 18.0555C252.249 18.1423 252.05 18.2726 251.883 18.4387C251.715 18.6048 251.582 18.8033 251.491 19.0226C251.4 19.2419 251.354 19.4775 251.354 19.7156C251.354 19.9536 251.4 20.1892 251.491 20.4085C251.582 20.6278 251.715 20.8263 251.883 20.9924C252.05 21.1585 252.249 21.2888 252.467 21.3756C252.684 21.4624 252.917 21.5039 253.151 21.4977H259.038L261.266 26.6805L253.374 35.4287H246.307L254.3 26.6865Z" fill="#23272B"/>
<path d="M73.7802 49.7315C72.6426 49.7315 71.6995 49.3489 70.9508 48.5837C70.5834 48.2126 70.2943 47.7692 70.1012 47.2804C69.9081 46.7916 69.815 46.2679 69.8278 45.7412C69.8278 44.6147 70.2021 43.6676 70.9508 42.9C71.6995 42.1323 72.6426 41.7493 73.7802 41.7509C74.4441 41.7455 75.098 41.916 75.6775 42.2458C76.2404 42.5595 76.7089 43.023 77.0329 43.5867L75.9527 44.224C75.7501 43.8428 75.4448 43.5284 75.0728 43.3176C74.6789 43.0918 74.2334 42.9761 73.7814 42.982C72.975 42.982 72.3216 43.2424 71.8212 43.763C71.3208 44.2836 71.0706 44.943 71.0706 45.7412C71.0706 46.5402 71.3208 47.2001 71.8212 47.7207C72.3216 48.2413 72.975 48.5012 73.7814 48.5004C74.2349 48.5065 74.682 48.3908 75.0775 48.1649C75.4511 47.9577 75.7557 47.6422 75.9527 47.2584L77.0329 47.8848C76.7143 48.4517 76.2487 48.9185 75.687 49.2342C75.1051 49.567 74.4476 49.7385 73.7802 49.7315Z" fill="#A78B73"/>
<path d="M85.7263 41.8934V43.1004H83.5918V49.5867H82.3562V43.1028H80.2217V41.8958L85.7263 41.8934Z" fill="#A78B73"/>
<path d="M92.131 41.8934C92.4615 41.8845 92.7904 41.9441 93.0976 42.0686C93.4048 42.1931 93.684 42.3798 93.918 42.6175C94.379 43.0994 94.6369 43.7453 94.6369 44.4178C94.6369 45.0903 94.379 45.7362 93.918 46.218C93.6851 46.4577 93.4063 46.6462 93.0989 46.772C92.7916 46.8978 92.4622 46.9582 92.131 46.9494H90.5894V49.5879H89.3443V41.8934H92.131ZM92.131 45.763C92.2999 45.7683 92.468 45.7373 92.6243 45.672C92.7806 45.6067 92.9216 45.5085 93.0382 45.384C93.2674 45.1178 93.3938 44.7759 93.3938 44.422C93.3938 44.068 93.2674 43.7262 93.0382 43.46C92.9215 43.3356 92.7805 43.2376 92.6242 43.1723C92.4679 43.107 92.2999 43.0759 92.131 43.081H90.5894V45.763H92.131Z" fill="#A78B73"/>
<path d="M104.74 48.5716C104.096 49.2374 103.244 49.6549 102.331 49.7527C101.418 49.8504 100.5 49.6224 99.7335 49.1076C98.9671 48.5929 98.4002 47.8232 98.1296 46.9302C97.8589 46.0372 97.9012 45.0762 98.2494 44.2114C98.5976 43.3467 99.23 42.6318 100.038 42.1889C100.847 41.7461 101.782 41.6027 102.682 41.7833C103.583 41.964 104.395 42.4573 104.978 43.1792C105.561 43.9011 105.88 44.8067 105.88 45.7412C105.89 46.2672 105.794 46.7898 105.598 47.2766C105.402 47.7634 105.11 48.2042 104.74 48.5716ZM100.052 47.7147C100.563 48.2187 101.247 48.5005 101.959 48.5005C102.67 48.5005 103.354 48.2187 103.865 47.7147C104.36 47.1814 104.637 46.4753 104.637 45.7412C104.637 45.0072 104.36 44.301 103.865 43.7678C103.354 43.2638 102.67 42.982 101.959 42.982C101.247 42.982 100.563 43.2638 100.052 43.7678C99.5567 44.301 99.2805 45.0072 99.2805 45.7412C99.2805 46.4753 99.5567 47.1814 100.052 47.7147Z" fill="#A78B73"/>
<path d="M114.249 49.5891V44.3677L110.692 49.5891H109.719V41.8934H110.962V47.116L114.525 41.8934H115.498V49.5891H114.249Z" fill="#A78B73"/>
<path d="M124.618 41.8934V43.1004H122.491V49.5867H121.248V43.1028H119.113V41.8958L124.618 41.8934Z" fill="#A78B73"/>
<path d="M129.478 48.3797H132.826V49.5867H128.236V41.8934H132.772V43.1004H129.478V45.1015H132.503V46.3001H129.478V48.3797Z" fill="#A78B73"/>
<path d="M136.045 49.5891V48.4244C136.519 48.4896 136.875 48.3721 137.112 48.0719C137.349 47.7718 137.468 47.1965 137.468 46.346V41.8934H142.534V49.5891H141.291V43.1028H138.711V46.3242C138.723 46.8998 138.652 47.4741 138.499 48.0285C138.398 48.4245 138.19 48.7839 137.899 49.0665C137.663 49.2854 137.378 49.4439 137.069 49.5288C136.734 49.6094 136.387 49.6298 136.045 49.5891Z" fill="#A78B73"/>
<path d="M149.524 44.527C149.855 44.5182 150.185 44.5786 150.492 44.7044C150.799 44.8302 151.078 45.0188 151.311 45.2585C151.772 45.7403 152.03 46.3862 152.03 47.0587C152.03 47.7312 151.772 48.3771 151.311 48.8589C151.077 49.0968 150.798 49.2837 150.491 49.4083C150.184 49.5328 149.855 49.5923 149.524 49.5831H146.737V41.8934H147.979V44.527H149.524ZM149.524 48.3966C149.693 48.4019 149.861 48.3709 150.017 48.3056C150.174 48.2403 150.315 48.1422 150.431 48.0176C150.661 47.7515 150.787 47.4096 150.787 47.0557C150.787 46.7017 150.661 46.3598 150.431 46.0937C150.315 45.9693 150.174 45.8713 150.017 45.806C149.861 45.7407 149.693 45.7096 149.524 45.7147H147.983V48.4015L149.524 48.3966Z" fill="#A78B73"/>
<path d="M160.292 41.8934H161.534V49.5891H160.292V46.2578H157.052V49.5891H155.809V41.8934H157.052V45.0484H160.292V41.8934Z" fill="#A78B73"/>
<path d="M170.671 49.5891L170.142 48.0394H166.923L166.394 49.5891H165.043L167.786 41.8934H169.277L172.004 49.5891H170.671ZM167.334 46.8517H169.732L168.533 43.378L167.334 46.8517Z" fill="#A78B73"/>
<path d="M180.738 41.8933V49.5891H179.495V46.7853H178.296L176.471 49.5891H175.067L176.989 46.6754C176.499 46.5265 176.068 46.2199 175.763 45.8016C175.449 45.3921 175.28 44.887 175.283 44.3677C175.281 44.0423 175.342 43.7198 175.464 43.4188C175.585 43.1178 175.764 42.8443 175.99 42.6142C176.216 42.3841 176.485 42.2019 176.78 42.0781C177.076 41.9544 177.393 41.8916 177.713 41.8933H180.738ZM177.713 45.6531H179.491V43.0786H177.713C177.554 43.0762 177.397 43.1083 177.252 43.1729C177.107 43.2374 176.977 43.3329 176.871 43.4528C176.648 43.7026 176.525 44.0279 176.525 44.3653C176.525 44.7026 176.648 45.0279 176.871 45.2777C176.977 45.3977 177.107 45.4932 177.252 45.558C177.397 45.6227 177.554 45.6551 177.713 45.6531Z" fill="#A78B73"/>
<path d="M196.052 49.5891H194.57L191.589 45.9283V49.5891H190.349V41.8934H191.592V45.3454L194.465 41.8934H195.944L192.888 45.6423L196.052 49.5891Z" fill="#A78B73"/>
<path d="M205.886 48.5716C205.241 49.2374 204.39 49.6549 203.477 49.7527C202.564 49.8504 201.645 49.6224 200.879 49.1076C200.113 48.5929 199.546 47.8232 199.275 46.9302C199.005 46.0372 199.047 45.0762 199.395 44.2114C199.743 43.3467 200.376 42.6318 201.184 42.1889C201.993 41.7461 202.927 41.6027 203.828 41.7833C204.729 41.964 205.54 42.4573 206.123 43.1792C206.707 43.9011 207.025 44.8067 207.025 45.7412C207.035 46.2673 206.94 46.7898 206.744 47.2766C206.548 47.7635 206.256 48.2042 205.886 48.5716ZM201.198 47.7147C201.709 48.2187 202.393 48.5005 203.104 48.5005C203.816 48.5005 204.499 48.2187 205.011 47.7147C205.507 47.1819 205.784 46.4755 205.784 45.7412C205.784 45.0069 205.507 44.3006 205.011 43.7678C204.499 43.2638 203.816 42.982 203.104 42.982C202.393 42.982 201.709 43.2638 201.198 43.7678C200.702 44.301 200.426 45.0072 200.426 45.7412C200.426 46.4753 200.702 47.1814 201.198 47.7147Z" fill="#A78B73"/>
<path d="M218.096 41.8934V49.5891H216.853V44.1034L214.553 47.973H214.402L212.102 44.0925V49.5891H210.859V41.8934H212.199L214.477 45.7413L216.767 41.8934H218.096Z" fill="#A78B73"/>
<path d="M227.87 41.8934V49.5891H226.628V43.1028H223.545V49.5891H222.304V41.8934H227.87Z" fill="#A78B73"/>
<path d="M237.008 49.5891L236.478 48.0394H233.259L232.731 49.5891H231.38L234.124 41.8934H235.615L238.342 49.5891H237.008ZM233.67 46.8517H236.068L234.869 43.378L233.67 46.8517Z" fill="#A78B73"/>
<path d="M246.339 41.8934H247.577V49.5891H246.336V46.2578H243.095V49.5891H241.853V41.8934H243.095V45.0484H246.336L246.339 41.8934Z" fill="#A78B73"/>
<path d="M256.33 49.5891V44.3677L252.765 49.5891H251.793V41.8934H253.032V47.116L256.59 41.8934H257.562V49.5891H256.33Z" fill="#A78B73"/>
<path d="M267 41.8934V49.5891H265.758V46.7853H264.56L262.733 49.5891H261.333L263.256 46.6754C262.766 46.5265 262.335 46.22 262.03 45.8016C261.718 45.3913 261.551 44.8863 261.556 44.3677C261.554 44.0423 261.615 43.7197 261.737 43.4186C261.858 43.1176 262.037 42.844 262.263 42.6139C262.489 42.3837 262.758 42.2015 263.053 42.0778C263.349 41.9541 263.666 41.8914 263.986 41.8934H267ZM263.976 45.6531H265.755V43.0786H263.976C263.818 43.0762 263.66 43.1083 263.515 43.1728C263.369 43.2374 263.239 43.3328 263.133 43.4528C262.911 43.703 262.788 44.0281 262.788 44.3653C262.788 44.7024 262.911 45.0275 263.133 45.2777C263.239 45.3977 263.369 45.4933 263.515 45.558C263.66 45.6228 263.817 45.6552 263.976 45.6531Z" fill="#A78B73"/>
</g>
<defs>
<clipPath id="clip0_105_467">
<rect width="267" height="59" fill="white"/>
</clipPath>
</defs>
</svg>

<svg width="267" height="59" viewBox="0 0 267 59" fill="none" xmlns="http://www.w3.org/2000/svg"><g clip-path="url(#clip0_105_467)"><path d="M36.406 25.006l4.848-2.896.097-.058c.098-.057.194-.121.29-.17l.019-.014.878-.524-1.484-.872-.523-.3c-2.925-1.738-5.868-3.444-8.803-5.162-4.188 2.433-8.37 4.879-12.57 7.288-.112 3.936.058 7.872-.052 11.81.107 5.864-.033 11.732.056 17.595 2.203 1.27 4.387 2.573 6.579 3.862.039-9.727-.01-19.458.024-29.187 1.997-1.108 3.901-2.388 5.929-3.43 1.503.592 2.822 1.584 4.252 2.334l.46-.276z" fill="#A78B73"/><path d="M44.375 25.413c-2.223 1.341-4.473 2.635-6.699 3.968 0 1.327.006 2.64 0 3.96a324.281 324.281 0 00-5.775 3.48c.006 2.594 0 5.19.006 7.785 4.17-2.415 8.301-4.908 12.473-7.31.02-3.961.018-7.922-.005-11.883z" fill="#A78B73"/><path d="M62.34 18.02l-.508-.303c-3.463-2.136-6.997-4.147-10.496-6.23-.01-1.43-.014-2.86-.014-4.29 0-.427 0-.854.005-1.283.429-.491.855-.984 1.278-1.477-3.1 0-6.2-.073-9.296.04.388.422.794.828 1.205 1.232v1.664C40.174 5.066 35.999 2.41 31.7 0a7732.158 7732.158 0 01-30 17.65l-.661.387-1.036.604H2c1.504.042 3.009-.017 4.512 0-.011 8.502.015 16.999-.011 25.497 2.193 1.338 4.423 2.607 6.64 3.905.014-9.765.014-19.528 0-29.29 6.191-3.644 12.403-7.254 18.581-10.922 6.151 3.606 12.3 7.218 18.447 10.838-.008 7.266-.008 14.53 0 21.794-6.06 3.59-12.12 7.178-18.176 10.762 0 2.591-.01 5.182.005 7.775a36014.81 36014.81 0 0124.984-14.643c.004-8.595.004-17.19 0-25.787h6.276l-.918-.55zm28.177 1.701a7.032 7.032 0 01-2.005 4.925 6.786 6.786 0 01-4.838 2.04h-8.117l2.228-5.182h5.889a1.723 1.723 0 001.267-.506 1.786 1.786 0 00.53-1.276 1.812 1.812 0 00-.53-1.277 1.749 1.749 0 00-1.267-.506H74.92v17.502h-5.1V12.755h13.854a6.788 6.788 0 014.838 2.041 7.032 7.032 0 012.005 4.925zm20.372 15.714H91.791v-22.68h19.098v5.19H96.883v3.565h10.823v5.183H96.883v3.564h14.006v5.178zm6.365 0h-5.099v-22.68h5.099v22.68zm15.596 0h-5.092v-8.749h-9.867l2.228-5.182h7.64v-8.749h5.092l-.001 22.68zm23.556-11.34c0 3.132-1.088 5.805-3.263 8.02-2.174 2.214-4.8 3.32-7.877 3.32s-5.703-1.107-7.879-3.32c-2.175-2.214-3.263-4.887-3.262-8.02 0-3.13 1.087-5.803 3.262-8.018 2.175-2.214 4.801-3.322 7.879-3.322 3.076 0 5.702 1.108 7.877 3.322 2.176 2.214 3.263 4.887 3.263 8.018zm-5.092 0c0-1.013-.245-2.01-.714-2.903a6.114 6.114 0 00-1.975-2.218 5.952 5.952 0 00-5.677-.567 6.063 6.063 0 00-2.361 1.784 6.21 6.21 0 00-1.254 2.707 6.265 6.265 0 00.148 2.99 6.17 6.17 0 001.516 2.564 6.01 6.01 0 003.096 1.688 5.941 5.941 0 003.495-.352 6.071 6.071 0 002.713-2.27 6.236 6.236 0 001.013-3.423zm27.056 4.379a7.035 7.035 0 01-2.007 4.924 6.786 6.786 0 01-4.838 2.042h-13.846V12.756h13.846c1.815 0 3.555.735 4.838 2.04a7.035 7.035 0 012.007 4.925c0 1.383-.616 2.841-1.847 4.374 1.23 1.535 1.846 2.994 1.847 4.38zm-5.1 0a1.78 1.78 0 00-1.079-1.65 1.716 1.716 0 00-.672-.133h-8.116l2.233-5.187h5.889a1.723 1.723 0 001.268-.506 1.793 1.793 0 00.529-1.276 1.808 1.808 0 00-.529-1.277 1.723 1.723 0 00-1.268-.505h-8.753v12.31h8.753a1.716 1.716 0 001.24-.516 1.775 1.775 0 00.511-1.26h-.006zm18.133-15.719h-4.125l-.496 1.175a966.421 966.421 0 01-4.309 9.961 1087.35 1087.35 0 01-5.073 11.447v.097h5.715l6.222-14.312 3.971 9.128h-7.313l2.228 5.19h13.044l-9.864-22.686zm11.113 22.68v-22.68h5.099v17.502h8.912V12.755h5.08v17.502h1.465v8.294h-5.093v-3.116h-15.463zm21.832-22.68h5.092v12.863l10.504-12.862h5.093v22.679h-5.093V22.572L229.44 35.435h-5.092v-22.68zM254.3 26.686h-1.149a6.788 6.788 0 01-4.839-2.04 7.034 7.034 0 01-2.005-4.925 7.034 7.034 0 012.005-4.925 6.788 6.788 0 014.839-2.04h13.845v22.679h-5.093V17.933h-8.752a1.722 1.722 0 00-1.268.506 1.78 1.78 0 00-.529 1.277 1.807 1.807 0 00.529 1.276 1.743 1.743 0 001.268.506h5.887l2.228 5.182-7.892 8.749h-7.067l7.993-8.743z" fill="#23272B"/><path d="M73.78 49.731c-1.137 0-2.08-.382-2.83-1.147a3.876 3.876 0 01-.849-1.304 3.93 3.93 0 01-.273-1.539c0-1.126.374-2.073 1.123-2.841.749-.768 1.692-1.15 2.83-1.15a3.772 3.772 0 011.896.496 3.57 3.57 0 011.356 1.34l-1.08.638a2.26 2.26 0 00-.88-.906 2.53 2.53 0 00-1.292-.336c-.806 0-1.46.26-1.96.781-.5.52-.75 1.18-.75 1.978 0 .8.25 1.46.75 1.98s1.154.78 1.96.78a2.54 2.54 0 001.296-.336c.374-.207.679-.523.876-.907l1.08.627a3.53 3.53 0 01-1.346 1.35 3.76 3.76 0 01-1.907.496zm11.946-7.838V43.1h-2.134v6.487h-1.236v-6.484h-2.134v-1.207l5.504-.003zm6.405 0a2.435 2.435 0 011.787.724c.461.482.719 1.128.719 1.8 0 .673-.258 1.32-.719 1.801a2.42 2.42 0 01-.82.554 2.387 2.387 0 01-.967.177h-1.542v2.639h-1.245v-7.695h2.787zm0 3.87a1.183 1.183 0 00.907-.379 1.475 1.475 0 000-1.924 1.204 1.204 0 00-.907-.379h-1.542v2.682h1.542zm12.609 2.809a3.91 3.91 0 01-5.006.536 4.027 4.027 0 01-1.604-2.178 4.101 4.101 0 01.12-2.719c.348-.864.98-1.58 1.788-2.022a3.904 3.904 0 012.644-.406 3.953 3.953 0 012.296 1.396 4.08 4.08 0 01.902 2.562 3.913 3.913 0 01-.282 1.536 3.852 3.852 0 01-.858 1.295zm-4.688-.857a2.715 2.715 0 001.907.785c.711 0 1.395-.281 1.906-.785a2.905 2.905 0 000-3.947 2.715 2.715 0 00-1.906-.786c-.712 0-1.396.282-1.907.786a2.9 2.9 0 00-.772 1.973 2.9 2.9 0 00.772 1.974zm14.197 1.875v-5.222l-3.557 5.221h-.973v-7.696h1.243v5.223l3.563-5.223h.973v7.696h-1.249zm10.369-7.697V43.1h-2.127v6.487h-1.243v-6.484h-2.135v-1.207l5.505-.003zm4.86 6.487h3.348v1.207h-4.59v-7.694h4.536V43.1h-3.294v2.002h3.025V46.3h-3.025v2.08zm6.567 1.21v-1.166c.474.066.83-.052 1.067-.352s.356-.876.356-1.726v-4.453h5.066v7.696h-1.243v-6.486h-2.58v3.221a5.941 5.941 0 01-.212 1.705 2.207 2.207 0 01-.6 1.037 2 2 0 01-.83.463 2.91 2.91 0 01-1.024.06zm13.479-5.063a2.397 2.397 0 011.787.731c.461.482.719 1.128.719 1.8a2.6 2.6 0 01-.719 1.8 2.435 2.435 0 01-.82.55 2.395 2.395 0 01-.967.175h-2.787v-7.69h1.242v2.634h1.545zm0 3.87a1.18 1.18 0 00.907-.38 1.47 1.47 0 00.356-.961 1.47 1.47 0 00-.356-.962 1.191 1.191 0 00-.907-.38h-1.541v2.688l1.541-.005zm10.768-6.504h1.242v7.696h-1.242v-3.331h-3.24v3.331h-1.243v-7.696h1.243v3.155h3.24v-3.155zm10.379 7.697l-.529-1.55h-3.219l-.529 1.55h-1.351l2.743-7.697h1.491l2.727 7.696h-1.333zm-3.337-2.738h2.398l-1.199-3.474-1.199 3.474zm13.404-4.959v7.696h-1.243v-2.804h-1.199l-1.825 2.804h-1.404l1.922-2.914a2.373 2.373 0 01-1.226-.873 2.335 2.335 0 01-.48-1.434 2.485 2.485 0 01.707-1.754 2.386 2.386 0 011.723-.72h3.025zm-3.025 3.76h1.778V43.08h-1.778a1.091 1.091 0 00-.842.374 1.37 1.37 0 00-.346.912c0 .338.123.663.346.913a1.116 1.116 0 00.842.375zm18.339 3.937h-1.482l-2.981-3.662v3.661h-1.24v-7.696h1.243v3.452l2.873-3.452h1.479l-3.056 3.75 3.164 3.946zm9.834-1.018a3.91 3.91 0 01-5.007.536 4.03 4.03 0 01-1.604-2.178 4.107 4.107 0 01.12-2.719 4.012 4.012 0 011.789-2.022 3.903 3.903 0 012.644-.406 3.95 3.95 0 012.295 1.396c.584.722.902 1.628.902 2.562a3.912 3.912 0 01-.281 1.536 3.85 3.85 0 01-.858 1.295zm-4.688-.857a2.715 2.715 0 001.906.785c.712 0 1.395-.281 1.907-.785.496-.533.773-1.24.773-1.974s-.277-1.44-.773-1.973a2.717 2.717 0 00-1.907-.786c-.711 0-1.395.282-1.906.786a2.898 2.898 0 00-.772 1.973 2.9 2.9 0 00.772 1.974zm16.898-5.822v7.696h-1.243v-5.486l-2.3 3.87h-.151l-2.3-3.88v5.496h-1.243v-7.696h1.34l2.278 3.848 2.29-3.848h1.329zm9.774 0v7.696h-1.242v-6.486h-3.083v6.486h-1.241v-7.696h5.566zm9.138 7.697l-.53-1.55h-3.219l-.528 1.55h-1.351l2.744-7.697h1.491l2.727 7.696h-1.334zm-3.338-2.738h2.398l-1.199-3.474-1.199 3.474zm12.669-4.959h1.238v7.696h-1.241v-3.331h-3.241v3.331h-1.242v-7.696h1.242v3.155h3.241l.003-3.155zm9.991 7.697v-5.222l-3.565 5.221h-.972v-7.696h1.239v5.223l3.558-5.223h.972v7.696h-1.232zM267 41.893v7.696h-1.242v-2.804h-1.198l-1.827 2.804h-1.4l1.923-2.914a2.373 2.373 0 01-1.226-.873 2.332 2.332 0 01-.474-1.434 2.486 2.486 0 01.707-1.754 2.38 2.38 0 011.723-.72H267zm-3.024 3.76h1.779V43.08h-1.779a1.096 1.096 0 00-.843.374 1.375 1.375 0 000 1.825 1.11 1.11 0 00.843.375z" fill="#A78B73"/></g><defs><clipPath id="clip0_105_467"><path fill="#fff" d="M0 0h267v59H0z"/></clipPath></defs></svg>
